src/assets/icons/book.svg

<svg width="17" height="17" viewBox="0 0 17 17" fill="none" xmlns="http://www.w3.org/2000/svg">
<path d="M13.1364 0H3.86364C1.73335 0 0 1.73335 0 3.86364V13.1364C0 15.2666 1.73335 17 3.86364 17H13.1364C15.2666 17 17 15.2666 17 13.1364V3.86364C17 1.73335 15.2666 0 13.1364 0ZM1.54545 3.86364C1.54545 2.58532 2.58532 1.54545 3.86364 1.54545H13.1364C14.4147 1.54545 15.4545 2.58532 15.4545 3.86364V4.63636H1.54545V3.86364ZM3.86364 15.4545C2.58532 15.4545 1.54545 14.4147 1.54545 13.1364V6.18182H4.63636V15.4545H3.86364ZM13.1364 15.4545H6.18182V6.18182H15.4545V13.1364C15.4545 14.4147 14.4147 15.4545 13.1364 15.4545Z" fill="white"/>
</svg>

<svg xmlns="http://www.w3.org/2000/svg" fill="#fff" width="17" height="17" fill="none"><path d="M13.136 0H3.864A3.87 3.87 0 0 0 0 3.864v9.272A3.87 3.87 0 0 0 3.864 17h9.272A3.87 3.87 0 0 0 17 13.136V3.864A3.87 3.87 0 0 0 13.136 0M1.546 3.864a2.32 2.32 0 0 1 2.318-2.319h9.272a2.32 2.32 0 0 1 2.319 2.319v.772H1.544zm2.318 11.59a2.32 2.32 0 0 1-2.319-2.318V6.182h3.091v9.272zm9.272 0H6.182V6.182h9.272v6.954a2.32 2.32 0 0 1-2.318 2.319"></path></svg>
